symbols/web/desktop_windows/materialsymbolsrounded/desktop_windows_wght200gradN25fill1_24px.svg

<svg xmlns="http://www.w3.org/2000/svg" height="24" width="24"><path d="M9.55 19.775q-.175 0-.312-.138-.138-.137-.138-.312 0-.2.138-.337.137-.138.312-.138h1.525v-1.975H4.7q-.65 0-1.1-.45-.45-.45-.45-1.075V5.675q0-.625.45-1.075.45-.45 1.1-.45h14.6q.65 0 1.1.45.45.45.45 1.075v9.675q0 .625-.45 1.075-.45.45-1.1.45h-6.375v1.975h1.525q.175 0 .312.138.138.137.138.337t-.138.325q-.137.125-.312.125Z"/></svg>

<svg xmlns="http://www.w3.org/2000/svg" height="24" width="24"><path d="M9.55 19.775Q9.375 19.775 9.238 19.637Q9.1 19.5 9.1 19.325Q9.1 19.125 9.238 18.988Q9.375 18.85 9.55 18.85H11.075V16.875H4.7Q4.05 16.875 3.6 16.425Q3.15 15.975 3.15 15.35V5.675Q3.15 5.05 3.6 4.6Q4.05 4.15 4.7 4.15H19.3Q19.95 4.15 20.4 4.6Q20.85 5.05 20.85 5.675V15.35Q20.85 15.975 20.4 16.425Q19.95 16.875 19.3 16.875H12.925V18.85H14.45Q14.625 18.85 14.762 18.988Q14.9 19.125 14.9 19.325Q14.9 19.525 14.762 19.65Q14.625 19.775 14.45 19.775Z"/></svg>
